build/img/icons/path.svg

<svg width="40" height="40" viewBox="0 0 40 40" fill="none" xmlns="http://www.w3.org/2000/svg">
<path d="M38.8281 21.1719C39.4753 21.1719 40 20.6472 40 20C40 19.3528 39.4753 18.8281 38.8281 18.8281H36.0156V13.75H38.8281C39.4753 13.75 40 13.2253 40 12.5781C40 11.9309 39.4753 11.4062 38.8281 11.4062H36.0156V5.15625C36.0156 4.50906 35.4909 3.98438 34.8438 3.98438H28.5938V1.17188C28.5938 0.524687 28.0691 0 27.4219 0C26.7747 0 26.25 0.524687 26.25 1.17188V3.98438H21.1719V1.17188C21.1719 0.524687 20.6472 0 20 0C19.3528 0 18.8281 0.524687 18.8281 1.17188V3.98438H13.75V1.17188C13.75 0.524687 13.2253 0 12.5781 0C11.9309 0 11.4062 0.524687 11.4062 1.17188V3.98438H5.15625C4.50906 3.98438 3.98438 4.50906 3.98438 5.15625V11.4062H1.17188C0.524687 11.4062 0 11.9309 0 12.5781C0 13.2253 0.524687 13.75 1.17188 13.75H3.98438V18.8281H1.17188C0.524687 18.8281 0 19.3528 0 20C0 20.6472 0.524687 21.1719 1.17188 21.1719H3.98438V26.25H1.17188C0.524687 26.25 0 26.7747 0 27.4219C0 28.0691 0.524687 28.5938 1.17188 28.5938H3.98438V34.8438C3.98438 35.4909 4.50906 36.0156 5.15625 36.0156H11.4062V38.8281C11.4062 39.4753 11.9309 40 12.5781 40C13.2253 40 13.75 39.4753 13.75 38.8281V36.0156H18.8281V38.8281C18.8281 39.4753 19.3528 40 20 40C20.6472 40 21.1719 39.4753 21.1719 38.8281V36.0156H26.25V38.8281C26.25 39.4753 26.7747 40 27.4219 40C28.0691 40 28.5938 39.4753 28.5938 38.8281V36.0156H34.8438C35.4909 36.0156 36.0156 35.4909 36.0156 34.8438V28.5938H38.8281C39.4753 28.5938 40 28.0691 40 27.4219C40 26.7747 39.4753 26.25 38.8281 26.25H36.0156V21.1719H38.8281ZM33.6719 11.4062H30.8594C30.2122 11.4062 29.6875 11.9309 29.6875 12.5781C29.6875 13.2253 30.2122 13.75 30.8594 13.75H33.6719V18.8281H30.8594C30.2122 18.8281 29.6875 19.3528 29.6875 20C29.6875 20.6472 30.2122 21.1719 30.8594 21.1719H33.6719V26.25H30.8594C30.2122 26.25 29.6875 26.7747 29.6875 27.4219C29.6875 28.0691 30.2122 28.5938 30.8594 28.5938H33.6719V33.6719H28.5938V30.8594C28.5938 30.2122 28.0691 29.6875 27.4219 29.6875C26.7747 29.6875 26.25 30.2122 26.25 30.8594V33.6719H21.1719V30.8594C21.1719 30.2122 20.6472 29.6875 20 29.6875C19.3528 29.6875 18.8281 30.2122 18.8281 30.8594V33.6719H13.75V30.8594C13.75 30.2122 13.2253 29.6875 12.5781 29.6875C11.9309 29.6875 11.4062 30.2122 11.4062 30.8594V33.6719H6.32812V28.5938H9.14062C9.78781 28.5938 10.3125 28.0691 10.3125 27.4219C10.3125 26.7747 9.78781 26.25 9.14062 26.25H6.32812V21.1719H9.14062C9.78781 21.1719 10.3125 20.6472 10.3125 20C10.3125 19.3528 9.78781 18.8281 9.14062 18.8281H6.32812V13.75H9.14062C9.78781 13.75 10.3125 13.2253 10.3125 12.5781C10.3125 11.9309 9.78781 11.4062 9.14062 11.4062H6.32812V6.32812H11.4062V9.14062C11.4062 9.78781 11.9309 10.3125 12.5781 10.3125C13.2253 10.3125 13.75 9.78781 13.75 9.14062V6.32812H18.8281V9.14062C18.8281 9.78781 19.3528 10.3125 20 10.3125C20.6472 10.3125 21.1719 9.78781 21.1719 9.14062V6.32812H26.25V9.14062C26.25 9.78781 26.7747 10.3125 27.4219 10.3125C28.0691 10.3125 28.5938 9.78781 28.5938 9.14062V6.32812H33.6719V11.4062Z" fill="#5CC773"/>
</svg>

<svg width="40" height="40" fill="none" xmlns="http://www.w3.org/2000/svg">
    <path d="M38.828 21.172a1.172 1.172 0 0 0 0-2.344h-2.812V13.75h2.812a1.172 1.172 0 0 0 0-2.344h-2.812v-6.25c0-.647-.525-1.172-1.172-1.172h-6.25V1.172a1.172 1.172 0 0 0-2.344 0v2.812h-5.078V1.172a1.172 1.172 0 0 0-2.344 0v2.812H13.75V1.172a1.172 1.172 0 0 0-2.344 0v2.812h-6.25c-.647 0-1.172.525-1.172 1.172v6.25H1.172a1.172 1.172 0 0 0 0 2.344h2.812v5.078H1.172a1.172 1.172 0 0 0 0 2.344h2.812v5.078H1.172a1.172 1.172 0 0 0 0 2.344h2.812v6.25c0 .647.525 1.172 1.172 1.172h6.25v2.812a1.172 1.172 0 0 0 2.344 0v-2.812h5.078v2.812a1.172 1.172 0 0 0 2.344 0v-2.812h5.078v2.812a1.172 1.172 0 0 0 2.344 0v-2.812h6.25c.647 0 1.172-.525 1.172-1.172v-6.25h2.812a1.172 1.172 0 0 0 0-2.344h-2.812v-5.078h2.812zm-5.156-9.766h-2.813a1.172 1.172 0 0 0 0 2.344h2.813v5.078h-2.813a1.172 1.172 0 0 0 0 2.344h2.813v5.078h-2.813a1.172 1.172 0 0 0 0 2.344h2.813v5.078h-5.078v-2.813a1.172 1.172 0 0 0-2.344 0v2.813h-5.078v-2.813a1.172 1.172 0 0 0-2.344 0v2.813H13.75v-2.813a1.172 1.172 0 0 0-2.344 0v2.813H6.328v-5.078h2.813a1.172 1.172 0 0 0 0-2.344H6.328v-5.078h2.813a1.172 1.172 0 0 0 0-2.344H6.328V13.75h2.813a1.172 1.172 0 0 0 0-2.344H6.328V6.328h5.078v2.813a1.172 1.172 0 0 0 2.344 0V6.328h5.078v2.813a1.172 1.172 0 0 0 2.344 0V6.328h5.078v2.813a1.172 1.172 0 0 0 2.344 0V6.328h5.078v5.078z" fill="#5CC773"/>
</svg>
